cssgg/shopping-cart.svg

<svg
  width="24"
  height="24"
  viewBox="0 0 24 24"
  fill="none"
  xmlns="http://www.w3.org/2000/svg"
>
  <path
    fill-rule="evenodd"
    clip-rule="evenodd"
    d="M5.79166 2H1V4H4.2184L6.9872 16.6776H7V17H20V16.7519L22.1932 7.09095L22.5308 6H6.6552L6.08485 3.38852L5.79166 2ZM19.9869 8H7.092L8.62081 15H18.3978L19.9869 8Z"
    fill="currentColor"
  />
  <path
    d="M10 22C11.1046 22 12 21.1046 12 20C12 18.8954 11.1046 18 10 18C8.89543 18 8 18.8954 8 20C8 21.1046 8.89543 22 10 22Z"
    fill="currentColor"
  />
  <path
    d="M19 20C19 21.1046 18.1046 22 17 22C15.8954 22 15 21.1046 15 20C15 18.8954 15.8954 18 17 18C18.1046 18 19 18.8954 19 20Z"
    fill="currentColor"
  />
</svg>

<svg viewBox="0 0 24 24" xmlns="http://www.w3.org/2000/svg"><path fill-rule="evenodd" d="M5.79 2H.99v2H4.2l2.76 12.67h.01v.32h13v-.25l2.19-9.67 .33-1.1H6.61l-.58-2.62 -.3-1.39Zm14.19 6H7.08l1.52 7h9.77l1.58-7Z"/><g><path d="M10 22c1.1 0 2-.9 2-2 0-1.11-.9-2-2-2 -1.11 0-2 .89-2 2 0 1.1.89 2 2 2Z"/><path d="M19 20c0 1.1-.9 2-2 2 -1.11 0-2-.9-2-2 0-1.11.89-2 2-2 1.1 0 2 .89 2 2Z"/></g></svg>
